X: 54
T: Bitoljka
O: Serbia
Z: Deborah Jones VIFD 2
M: 2/4
L: 1/16
Q: 1/4=138
K: Gdor
%%MIDI program 24
%%MIDI bassprog 24
%%MIDI chordprog 68
  "C" [gb][fa][gb][fa] [e4g4]|"F"[fa][eg][fa][eg] [c4f4]                |\
  "C" [e6g6][c2f2]           | [e2g2][f2a2][g2b2][a2c2]                 |
  [gb][fa][gb][fa] [e4g4]    |"F"[fa][eg][fa][eg] [c4f4]                |\
  "C"[e6g6] [c2f2]           | [e2g2]z2 [e4g4]                          |
|:"C" [e2g2][f2a2][g2b2][a2c'2]|"Bb"[bd'][ac'][g2b2] "F" [ac'][gb][f2a2]|\
  "C" [g6b6][a2c'2]          |[gb][ac'][gb][fa] [e4g4]                 :|
|:"C"[gb][fa][gb][fa] [e4g4] |"F"[fa][eg][fa][eg] [c4f4]                |\
  "C"[e6g6][c2f2]            |[e2g2][f2a2][g2b2][a2c'2]                 |
  [gb][ea][gb][fa] [e4g4]    |"F"[fa][eg][fa][eg] [c4f4]                |\
  [e6g6][c2f2]               |[e2g2]z2[e4g4]                            :|



